.local/share/icons/Gruvbox-Plus-Dark/panel/16/pushbullet-indicator-disabled.svg

<svg xmlns="http://www.w3.org/2000/svg" width="16" height="16" version="1.1">
 <defs>
  <style id="current-color-scheme" type="text/css">
   .ColorScheme-Text { color:#ebdbb2; } .ColorScheme-Highlight { color:#458588; }
  </style>
 </defs>
 <path style="opacity:0.3;fill:currentColor" class="ColorScheme-Text" d="M 0,2 V 14 H 2 V 2 Z M 4,2 V 14 L 8.253,13.968 C 11.184,13.935 11.461,13.895 12.7,13.291 15.402,11.974 16.678,8.787 15.64,5.9475 14.954,4.0722 13.394,2.6838 11.405,2.1789 10.78,2.0203 10.383,1.9997 7.955,1.9997 Z"/>
</svg>

<svg width="16" height="16" version="1.1" xmlns="http://www.w3.org/2000/svg">
  <defs>
    <style id="current-color-scheme" type="text/css">.ColorScheme-Text { color:#ebdbb2; } .ColorScheme-Highlight { color:#458588; } .ColorScheme-NeutralText { color:#fe8019; } .ColorScheme-PositiveText { color:#689d6a; } .ColorScheme-NegativeText { color:#fb4934; }</style>
  </defs>
  <path class="ColorScheme-Text" d="m0 2v12h2v-12zm4 0v12l4.253-0.032c2.931-0.033 3.208-0.073 4.447-0.677 2.702-1.317 3.978-4.504 2.94-7.344-0.686-1.875-2.246-3.264-4.235-3.769-0.625-0.1586-1.022-0.1792-3.45-0.1792z" fill="currentColor" opacity=".3"/>
</svg>
